_site/img/icons/email.svg

<svg xmlns="http://www.w3.org/2000/svg" viewBox="0 0 512 512" fill="#f2f2f2"><path d="M101.3 141.6v228.9h309.5V141.6H101.3zm274.4 26.2L256 259.3l-119.6-91.5h239.3zm-248.1 26.3l64.1 49.1-64.1 64.1V194.1zm.2 150.1l84.9-84.9 43.2 33.1 43-32.9 84.7 84.7H127.8zm256.6-36.4L320 243.4l64.4-49.3v113.7z"/></svg>

<svg version="1.1" xmlns="http://www.w3.org/2000/svg" xmlns:xlink="http://www.w3.org/1999/xlink" viewBox="0 0 512 512" fill="#f2f2f2"><path d="M101.3 141.6v228.9h0.3 308.4 0.8V141.6H101.3zM375.7 167.8l-119.7 91.5 -119.6-91.5H375.7zM127.6 194.1l64.1 49.1 -64.1 64.1V194.1zM127.8 344.2l84.9-84.9 43.2 33.1 43-32.9 84.7 84.7L127.8 344.2 127.8 344.2zM384.4 307.8l-64.4-64.4 64.4-49.3V307.8z"/></svg>
